X: 1
T: Cuidich'n Righ
M: 6/8
L: 1/8
R: jig
K: Bdor
|:B2B Bcd|faf ecB|A2A Ace|f2f ecA|
B2B Bce|faf ece|faf ece|fBB B2f:|
|:B2B f2e|a2f ecB|A2A eAA|fAA eAA|
B2B f2e|a2f ece|faf ece|fBB B2f:|
